X:1
T:Title
%%score ( 1 2 ) ( 3 4 )
L:1/8
Q:1/4=70
M:3/4
K:F
V:1 treble nm="Strings 1, Treble"
V:2 treble 
V:3 bass nm="Strings 1, Bass"
V:4 bass 
V:1
 z2 z2 FA | [Fc]3 [FA] [CF][CG] | [CF]4 F2 | [EG]3 [GB] [FA][EG] | [FA]4 FA | [Fc]3 [FA] [CF][CG] | %6
 [CF]4 F2 | [EG]3 [GB] [FA][EG] | F4 F[FA] | [Ac]3 [Ac] [Bd][Ac] | [Af]4 fd | [Fc]3 [Fd] [Fc][FA] | %12
 [EG]4 FA | [Fc]3 [Fc] [Fd][Fc] | [Af][Fe] [Fd]2[Q:1/4=70] Bd[Q:1/4=12] | [Fc]3 [CF] [EA][EG] | %16
 F4 z2 |] %17
V:2
 x6 | x6 | x6 | x6 | x6 | x6 | x6 | x6 | x6 | x6 | z2 z2 F2 | x6 | x6 | x6 | z2 z2 F2 | x6 | x6 |] %17
V:3
 z2 z2 A,C | [F,A,]3 [F,C] [F,A,][F,B,] | [F,A,]4 [D,A,]2 | [C,C]3 [C,C] [C,C][C,C] | [F,C]4 A,C | %5
w: 1.~My~ *|soul~ in~ trou ble~|roamed~ Up|on~ a~ wea ry~|plain,~ And~ *|
 [F,A,]3 [F,C] [F,A,][F,B,] | [F,A,]4 [A,,C]2 | [C,C]3 [C,C] [C,C][C,B,] | [F,A,]4 [F,A,][F,C] | %9
w: ev er~ rest less,~|longed~ A~|per fect~ bliss~ to~|gain.~ * *|
 [F,F]3 [F,F] [F,F][F,F] | [F,C]4 DB, | [F,A,]3 [F,B,] [F,A,][F,C] | [C,C]4 A,C | %13
w: ||||
 [F,A,]3 [F,A,] [F,B,][F,A,] | [F,C][A,,C] [B,,B,]2 DB, | [C,A,]3 [C,A,] [C,C][C,B,] | %16
w: |||
 [F,,F,A,]4 z2 |] %17
w: |
V:4
 z2 z2 F,2 | x6 | x6 | x6 | z2 z2 F,2 | x6 | x6 | x6 | x6 | x6 | z2 z2 F,2 | x6 | z2 z2 F,2 | x6 | %14
 z2 z2 B,,2 | x6 | x6 |] %17

